X: 092
T: Loyalty and Freedom
%R: reel
B: Thompson's Twenty four Country Dances (for the Year 1804) p.9 #2
S: http://folkopedia.efdss.org/images/2/28/Thompson24_1804.PDF  2014-8-2
Z: 2014 John Chambers <jc:trillian.mit.edu>
M: 2/4
L: 1/16
K: G
|:\
G2G2 GBdg | fgaf d4 | ec'db caBg | gfaf d4 |
G2G2 GBdg | fgaf d4 | ec'db caBg | fgaf g4 :|
|:\
d2d2 edcB | c2c2 dcBA | B2B2 cBAG | FGAF D4 |
d2d2 edcB | abc'a gfed | c'abg afge | d2f2 g4 :|
% - - - - - - - - - - - - - - - - - - - - - - - - -
%%begintext align
%% The 1st and 2d Cu: change sides and back
%% again, lead down the middle & back again,
%% Pousette with the top Couple.
%%endtext
% - - - - - - - - - - - - - - - - - - - - - - - - -
